modules/entypo/icons/linkedin.svg

<svg height="1000px" width="900px" xmlns="http://www.w3.org/2000/svg">
  <g>
    <path d="M204 152c0 26.667 -9.667 49.333 -29 68c-19.333 18.667 -44.333 28 -75 28c-29.333 0 -53.333 -9.333 -72 -28c-18.667 -18.667 -28 -41.333 -28 -68c0 -28 9.333 -51 28 -69c18.667 -18 43.333 -27 74 -27c30.667 0 55 9 73 27c18 18 27.667 41 29 69c0 0 0 0 0 0m-198 790c0 0 0 -618 0 -618c0 0 192 0 192 0c0 0 0 618 0 618c0 0 -192 0 -192 0c0 0 0 0 0 0m306 -420c0 -57.333 -1.333 -123.333 -4 -198c0 0 166 0 166 0c0 0 10 86 10 86c0 0 4 0 4 0c40 -66.667 103.333 -100 190 -100c66.667 0 120.333 22.333 161 67c40.667 44.667 61 111 61 199c0 0 0 366 0 366c0 0 -192 0 -192 0c0 0 0 -342 0 -342c0 -89.333 -32.667 -134 -98 -134c-46.667 0 -79.333 24 -98 72c-4 8 -6 24 -6 48c0 0 0 356 0 356c0 0 -194 0 -194 0c0 0 0 -420 0 -420c0 0 0 0 0 0" />
  </g>
</svg>

<svg height="1000" width="900" xmlns="http://www.w3.org/2000/svg"><path d="M204 152c0 26.667-9.667 49.333-29 68s-44.333 28-75 28c-29.333 0-53.333-9.333-72-28S0 178.667 0 152c0-28 9.333-51 28-69s43.333-27 74-27 55 9 73 27 27.667 41 29 69M6 942V324h192v618H6m306-420c0-57.333-1.333-123.333-4-198h166l10 86h4c40-66.667 103.333-100 190-100 66.667 0 120.333 22.333 161 67s61 111 61 199v366H708V600c0-89.333-32.667-134-98-134-46.667 0-79.333 24-98 72-4 8-6 24-6 48v356H312V522"/></svg>
